X:1
T:Can can
T:Can can
T:Jacques Offenbach
C:Jacques Offenbach
L:1/8
M:2/4
K:C
V:1 treble nm="Flauto" snm="Fl."
V:1
 C2 C2 | DF ED | G2 G2 | GA EF | D2 D2 | DF ED | Cc BG | GF ED | C2 DF | ED G2 | G2 GA | EF D2 | %12
w: do do|re fa mi re|sol sol|sol la mi fa|re re|re fa mi re|do do si sol|sol fa mi re|do re fa|mi re sol|sol sol la|mi fa re|
w: ||||||* alto * *||||||
 D2 DF | ED CG | DE C2 | GD DE | DC CE | FA cA | AG G2 | AD DA | GC CE | ED ED | ED ED | ED ED | %24
w: re re fa|mi re do sol|re mi do|sol re re mi|re do do mi|fa la do la|la sol sol|la re re la|sol do do mi|mi re mi re|mi re mi re|mi re mi re|
w: |||||* * alto *|||||||
 DC CE | FA cA | AG G2 | AG AG | AG AG | AG AG | AG AG |] %31
w: re do do mi|fa la do la|la sol sol|la sol la sol|la sol la sol|la sol la sol|la sol la sol|
w: |* * alto *||||||

